X: 9237
T: Dan Galbey
R: reel
M: 4/4
K: Fmajor
|:dcAG FDCD|F2AF cFA[Dd]|dcAG FDCF|1 [DA]ddc d2fe:|2 [DA]ddc d2de||
fede fagf|ecgc acgg|fede fagf|ecgc [dg]/[dg]/[dg] [dg]e|
fede fagf|ecgc acgg|afge fdec|Addc d2fe|

